static/assets/img/icons/theme/home/mirror.svg

<svg height="24" viewBox="0 0 24 24" width="24" xmlns="http://www.w3.org/2000/svg"><g fill="none" fill-rule="evenodd"><path d="m0 0h24v24h-24z" opacity="0"/><g fill="#000"><path d="m13 17.0484323v.9515677h1c1.1045695 0 2 .8954305 2 2h-8c0-1.1045695.8954305-2 2-2h1v-.9517688c-4.10155183-.455684-7.41314298-3.6790501-7.92444991-7.82784378-.06755375-.5481377.32203651-1.04725424.8701742-1.11480799.5481377-.06755376 1.04725424.3220365 1.114808.8701742.42913401 3.48203477 3.39995935 6.12775927 6.94028681 6.12775927 3.5768249 0 6.5673748-2.6992121 6.9516681-6.22579164.0598286-.54903459.5534098-.9456144 1.1024444-.8857858.5490345.05982861.9456144.55340975.8857857 1.10244435-.4582957 4.20568399-3.7935576 7.49420409-7.9407173 7.95405249z" fill-rule="nonzero"/><path d="m12 14c-3.3137085 0-6-2.6862915-6-6s2.6862915-6 6-6 6 2.6862915 6 6-2.6862915 6-6 6zm-3.18404227-6.19922647c-.02528231-.36155398-.3388751-.63415604-.70042909-.60887372s-.63415604.33887511-.60887372.7004291c.11613705 1.66083721.89001545 2.97121769 2.28836746 3.87481039.30441262.1967065.71064992.1093935.90735642-.195019.1967066-.3044126.1093936-.7106499-.195019-.9073565-1.0513713-.67937926-1.60408274-1.61526567-1.69140207-2.86399027z" opacity=".3"/></g></g></svg>

<svg width="24px" height="24px" viewBox="0 0 24 24" version="1.1" xmlns="http://www.w3.org/2000/svg" xmlns:xlink="http://www.w3.org/1999/xlink">
    <title>Icon For Mirror</title>
    <g stroke="none" stroke-width="1" fill="none" fill-rule="evenodd">
        <rect opacity="0" x="0" y="0" width="24" height="24"></rect>
        <path d="M13,17.0484323 L13,18 L14,18 C15.1045695,18 16,18.8954305 16,20 L8,20 C8,18.8954305 8.8954305,18 10,18 L11,18 L11,17.0482312 C6.89844817,16.5925472 3.58685702,13.3691811 3.07555009,9.22038742 C3.00799634,8.67224972 3.3975866,8.17313318 3.94572429,8.10557943 C4.49386199,8.03802567 4.99297853,8.42761593 5.06053229,8.97575363 C5.4896663,12.4577884 8.46049164,15.1035129 12.0008191,15.1035129 C15.577644,15.1035129 18.5681939,12.4043008 18.9524872,8.87772126 C19.0123158,8.32868667 19.505897,7.93210686 20.0549316,7.99193546 C20.6039661,8.05176407 21.000546,8.54534521 20.9407173,9.09437981 C20.4824216,13.3000638 17.1471597,16.5885839 13,17.0484323 Z" fill="#000000" fill-rule="nonzero"></path>
        <path d="M12,14 C8.6862915,14 6,11.3137085 6,8 C6,4.6862915 8.6862915,2 12,2 C15.3137085,2 18,4.6862915 18,8 C18,11.3137085 15.3137085,14 12,14 Z M8.81595773,7.80077353 C8.79067542,7.43921955 8.47708263,7.16661749 8.11552864,7.19189981 C7.75397465,7.21718213 7.4813726,7.53077492 7.50665492,7.89232891 C7.62279197,9.55316612 8.39667037,10.8635466 9.79502238,11.7671393 C10.099435,11.9638458 10.5056723,11.8765328 10.7023788,11.5721203 C10.8990854,11.2677077 10.8117724,10.8614704 10.5073598,10.6647638 C9.4559885,9.98538454 8.90327706,9.04949813 8.81595773,7.80077353 Z" fill="#000000" opacity="0.3"></path>
    </g>
</svg>
